Sources/FrostedUI/Resources/Icons.xcassets/receipt24.imageset/receipt-24.svg

<svg width="24" height="24" viewBox="0 0 24 24" fill="none" xmlns="http://www.w3.org/2000/svg" data-fui-icon="true">
  <path
    d="M20.29 0.656982C20.5162 0.481586 20.823 0.450081 21.0801 0.575928C21.3371 0.701826 21.4999 0.963578 21.5 1.24976V22.7498C21.5 23.036 21.3371 23.2976 21.0801 23.4236C20.823 23.5495 20.5162 23.518 20.29 23.3425L17.833 21.4353L15.376 23.3425L15.2705 23.4109C15.0131 23.5488 14.6938 23.5262 14.457 23.3425L12 21.4353L9.54297 23.3425C9.30616 23.5261 8.98685 23.5488 8.72949 23.4109L8.62402 23.3425L6.16699 21.4353L3.70996 23.3425C3.48377 23.518 3.17703 23.5495 2.91992 23.4236C2.66289 23.2976 2.5 23.036 2.5 22.7498V1.24976C2.5001 0.963578 2.66291 0.701826 2.91992 0.575928C3.17696 0.450081 3.48382 0.481588 3.70996 0.656982L6.16699 2.56323L8.62402 0.656982L8.72949 0.588623C8.98678 0.450822 9.30621 0.473489 9.54297 0.656982L12 2.56323L14.457 0.656982C14.6938 0.47348 15.0132 0.450833 15.2705 0.588623L15.376 0.656982L17.833 2.56323L20.29 0.656982ZM12.46 4.10522L12.3535 4.17456C12.0962 4.3122 11.7767 4.28887 11.54 4.10522L9.08301 2.19897L6.62695 4.10522L6.52051 4.17456C6.30003 4.29258 6.03401 4.29242 5.81348 4.17456L5.70703 4.10522L4 2.78101V21.2175L5.70703 19.8943L5.81348 19.825C6.07072 19.6875 6.39039 19.7108 6.62695 19.8943L9.08301 21.7996L11.54 19.8943L11.6465 19.825C11.9038 19.6874 12.2233 19.7108 12.46 19.8943L14.916 21.7996L17.374 19.8943L17.4795 19.825C17.7368 19.6872 18.0563 19.7107 18.293 19.8943L20 21.2175V2.78101L18.293 4.10522C18.0562 4.28894 17.7369 4.31236 17.4795 4.17456L17.374 4.10522L14.916 2.19897L12.46 4.10522ZM13.25 14.9998C13.6641 14.9998 13.9999 15.3357 14 15.7498C14 16.164 13.6642 16.4998 13.25 16.4998H7.75C7.33579 16.4998 7 16.164 7 15.7498C7.00015 15.3357 7.33588 14.9998 7.75 14.9998H13.25ZM16.25 11.2498C16.6641 11.2498 16.9999 11.5857 17 11.9998C17 12.414 16.6642 12.7498 16.25 12.7498H7.75C7.33579 12.7498 7 12.414 7 11.9998C7.00015 11.5857 7.33588 11.2498 7.75 11.2498H16.25ZM16.25 7.49976C16.6641 7.49976 16.9999 7.83567 17 8.24976C17 8.66397 16.6642 8.99976 16.25 8.99976H7.75C7.33579 8.99976 7 8.66397 7 8.24976C7.00015 7.83567 7.33588 7.49976 7.75 7.49976H16.25Z"
    fill="currentColor"
  />
</svg>

<svg xmlns="http://www.w3.org/2000/svg" width="24" height="24" fill="none" data-fui-icon="true" viewBox="0 0 24 24"><path fill="currentColor" d="M20.29.657a.751.751 0 0 1 1.21.593v21.5a.75.75 0 0 1-1.21.593l-2.457-1.908-2.457 1.908-.105.068a.75.75 0 0 1-.814-.069L12 21.436l-2.457 1.908a.75.75 0 0 1-.814.068l-.105-.069-2.457-1.907-2.457 1.908a.75.75 0 0 1-1.21-.593V1.25A.75.75 0 0 1 3.71.657l2.457 1.906L8.624.657l.105-.068a.75.75 0 0 1 .814.068L12 2.563 14.457.657a.75.75 0 0 1 .813-.068l.106.068 2.457 1.906zm-7.83 3.448-.107.07a.75.75 0 0 1-.813-.07L9.083 2.2 6.627 4.105l-.106.07a.75.75 0 0 1-.708 0l-.106-.07L4 2.781v18.437l1.707-1.324.106-.069a.75.75 0 0 1 .814.07L9.083 21.8l2.457-1.906.107-.069a.75.75 0 0 1 .813.07l2.456 1.905 2.458-1.906.106-.069a.75.75 0 0 1 .813.07L20 21.217V2.78l-1.707 1.324a.75.75 0 0 1-.813.07l-.106-.07L14.916 2.2zM13.25 15a.75.75 0 0 1 0 1.5h-5.5a.75.75 0 0 1 0-1.5zm3-3.75a.75.75 0 0 1 0 1.5h-8.5a.75.75 0 0 1 0-1.5zm0-3.75a.75.75 0 0 1 0 1.5h-8.5a.75.75 0 0 1 0-1.5z"/></svg>
